X:1
T:The Memory of the Dead
M:4/4
L:1/4
K:G
 D/2| c3/2 B/2 A B| G3/2 E/2 D3/2 B,/2| D/2 E3/2 G3/2 G/2| G3 z/2|\
 E/2| E/2 A3/2 c3/2 B/2| B3/2 A/4A/4 A3/2 G/2| G3/2 F/2 D3/2 D/2| D3|\
 d/2| d3/2 B/2 B3/2 d/2| c3/2 A/2 A3/2 A/2| c B A G| e3 z/2| D/4D/4|\
 D2 G3/2 A/2| B2 d3/2D/4-B,/4| D3/2 E/2 G3/2 G/2| G3||
